X: 167
T: A Night Is Different
C: Teton Sioux band 1911-1914
N: Derived from sioux162.krn
O: South Dakota, U.S.A.
N: Teton Sioux Music by Frances Densmore, 1918
Z: transcribed to **kern format by Craig Sapp
L: 1/8
M: 3/4
Q: 1/4=58
K: Gb clef=bass
%%linebreak <none>
E B, B, E E B, [I:setbarnb 1]||  
[M:2/4]B,> A, A,3/ G,/ | 
G, B, B, A, ||  
[M:3/4]B,< G, G, E,E,2 ||  
[M:2/4]G, G, G,/ E,3/ | 
G, G, A, G, | 
E,> E,E,2- | 
E,4 | 
E,4 ||  
[M:3/4]E B, B, E E B, ||  
[M:2/4]B,> A, A,3/ G,/ | 
G, B, B,3/ A,/ ||  
[M:3/4]B,< G, G, E,E,2 ||  
[M:2/4]G, G, G,3/ E,/ | 
G, G, A, G, | 
E,> E,E,2- | 
E,2E,2 |]  



